X:661
T:Vals # 661
S:efter Anders Gustaf Andersson
B:Sörmlands musikarkiv - Olof Anderssons uppteckningar 1936, nr 661
O:Mörkö, Södermanland
N: Jfr n:r 28, 56, 120 och 532.
R:Vals
M:3/4
L:1/8
Q:160
K:G
(G|:G2)B2d2| g4g2| (fg) ag fg| e4d2| (cd) ed cB| (AB) cB AG| FE D2 EF|
G2 (GA) cd| B2d2 [D2G,2]| g4g2| (fg) ag fg|e4d2| (cd) ed cB| (AB) cB AG|
 FE D2 EF| G4z2 :| d2 gg gb| d2 gg gb| ba aa a2| d2ff (fa)| d2 ff (fa)|
(af) gg g2| d2 gg (gb)| d2gg (gb)| b2a2g2| d'4 d'd'|d'2c'2b2|c'3bc'2| e4f2|
(fe) fb af| g4z2:|

